dist/img/visa.svg

<svg width="80" height="25" viewBox="0 0 80 25" fill="none" xmlns="http://www.w3.org/2000/svg">
<path d="M73.9209 0.347656H68.9388C67.4326 0.347656 66.274 0.811104 65.5788 2.31731L56.0781 23.9835H62.7981C62.7981 23.9835 63.9567 21.0869 64.1885 20.3918C64.8836 20.3918 71.4878 20.3918 72.4146 20.3918C72.6464 21.2028 73.2257 23.8676 73.2257 23.8676H79.2505L73.9209 0.347656ZM66.0422 15.5256C66.6216 14.1352 68.5912 8.92143 68.5912 8.92143C68.5912 9.0373 69.1705 7.53109 69.4022 6.72006L69.8657 8.80557C69.8657 8.80557 71.1402 14.4828 71.3719 15.6414H66.0422V15.5256Z" fill="#3362AB"/>
<path d="M56.5402 16.2207C56.5402 21.0869 52.1374 24.331 45.3016 24.331C42.4051 24.331 39.6244 23.7517 38.1182 23.0565L39.0451 17.7269L39.8561 18.0745C41.9416 19.0013 43.3319 19.3489 45.8809 19.3489C47.7347 19.3489 49.7044 18.6538 49.7044 17.0317C49.7044 15.9889 48.8933 15.2938 46.3444 14.1351C43.9113 12.9765 40.6671 11.1227 40.6671 7.76275C40.6671 3.12827 45.1857 0 51.5581 0C53.9912 0 56.0768 0.463447 57.3512 1.04276L56.4243 6.14068L55.9609 5.67723C54.8023 5.21378 53.2961 4.75034 51.0947 4.75034C48.6616 4.8662 47.503 5.90896 47.503 6.83585C47.503 7.87861 48.8933 8.68964 51.0947 9.7324C54.8023 11.4703 56.5402 13.44 56.5402 16.2207Z" fill="#3362AB"/>
<path d="M0 0.588448L0.115862 0.125H10.08C11.4703 0.125 12.5131 0.588447 12.8607 2.09465L15.062 12.5222C12.8607 6.96085 7.76275 2.44224 0 0.588448Z" fill="#F9B50B"/>
<path d="M29.081 0.346331L19.001 23.8663H12.1652L6.37207 4.16977C10.5431 6.8346 14.019 11.0056 15.2934 13.9022L15.9886 16.3353L22.2451 0.230469H29.081V0.346331Z" fill="#3362AB"/>
<path d="M31.7466 0.230469H38.119L34.0638 23.8663H27.6914L31.7466 0.230469Z" fill="#3362AB"/>
</svg>

<svg width="80" height="25" fill="none" xmlns="http://www.w3.org/2000/svg"><path d="M73.92.348h-4.98c-1.506 0-2.665.463-3.36 1.97l-9.5 21.666h6.72s1.158-2.897 1.39-3.592h8.226c.231.81.81 3.476.81 3.476h6.026L73.92.348zm-7.878 15.178c.58-1.39 2.55-6.605 2.55-6.605 0 .116.579-1.39.81-2.2l.464 2.085s1.274 5.677 1.506 6.835h-5.33v-.115zm-9.502.694c0 4.867-4.403 8.111-11.238 8.111-2.897 0-5.678-.58-7.184-1.274l.927-5.33.811.348c2.086.926 3.476 1.274 6.025 1.274 1.854 0 3.823-.695 3.823-2.317 0-1.043-.81-1.738-3.36-2.897-2.433-1.159-5.677-3.012-5.677-6.372C40.667 3.128 45.186 0 51.558 0c2.433 0 4.519.463 5.793 1.043l-.927 5.098-.463-.464c-1.159-.463-2.665-.927-4.866-.927-2.433.116-3.592 1.159-3.592 2.086 0 1.043 1.39 1.854 3.592 2.896 3.707 1.738 5.445 3.708 5.445 6.489z" fill="#3362AB"/><path d="M0 .588L.116.125h9.964c1.39 0 2.433.463 2.78 1.97l2.202 10.427C12.861 6.961 7.762 2.442 0 .588z" fill="#F9B50B"/><path d="M29.081.346l-10.08 23.52h-6.836L6.372 4.17c4.171 2.665 7.647 6.836 8.921 9.732l.696 2.433L22.245.23h6.836v.116zM31.747.23h6.372l-4.055 23.636H27.69L31.747.23z" fill="#3362AB"/></svg>
